X: 1
T: Sl\aattesmeden
T: the Tunesmith
C: James Gray
R: strathspey
B: Alex & James Gray "Tweeddale Collection" p.45 #4,7
N: Tune for The Black Squirrel
Z: 2013 John Chambers <jc:trillian.mit.edu>
M: C
L: 1/8
K: Dm
G |\
"Dm"A<D d<f "Am"ef/g/ a>g | "Dm"f>A d<A "C"e>G c<G |\
"Dm"A<d F>D "Am"EF/G/ A>G | "Dm"F>A, D<A, "Gm"B,>G, "A"A,>^C |
"Dm"A,<D D<F "A"EF/G/ A>G | "Dm"F<A d<f "Em"ef/g/ "A"a>g |\
"Bb"f>d B<F "A"A=B/^c/ "Dm"d>A | "Gm"B>G "A"A>E "Dm"F<D D ||
E |\
"F"F<C A<c "C"G>F E<C | "Bb"D<B, F<B "F"A>G F<C |\
"Gm"B,<D G<B "C"E>C E<C | "Dm"F>A, D<A, "Gm"B,>G, "A"A,<^C |
"Dm"A,<D D<F "A"EF/G/ A>^c | "Gm"d>B G<D "C"E>C "F"A,<F |\
"Bb"B,<D F<B "A"A=B/^c/ "Dm"d>A | "Gm"B>G "A"A>E "Dm"F<D D |]
